X: 6860
T: Charlie Mulvihill's
R: reel
M: 4/4
K: Dmajor
dB|:AF ~F2 G2 FG|AFDF EGFE|D2 FA dfed|dBAF E2 dB|
AF F2 G2 FG|AFDF EGFE|D2 FA dfed|1 dBAF D2 dB:|2 dBAF D2 de||
~f2 df g2 fg|afdf edBd|f2 fe dfed|dBAF E2 fg|
af f2 bf f2|afdf edBd|f2 fe dfed|1 dBAF D2 de:|2 dBAF D2 dB||

